X:1
T:Molly Put the Kettle On
L:1/8
M:C|
R:Reel
Z:Philippe Varlet  irtrad-l 2001-11-4
K:ADor
cded cAAc | Bcdc BGG2 | ceed cBAG | EDEG A3 B |
cded cAAc | Bcdc BGG2 | cBcA B2AG | EDEG A3 B ||
cdef g2eg | aged cAAB | cdef g2eg | ageg a2AB |
cdef g2eg | aged cAAB | cBcA B2AG | EDEG A3 B ||
